svgs/thin/microphone-stand.svg

<svg xmlns="http://www.w3.org/2000/svg" viewBox="0 0 512 512"><!--! Font Awesome Pro 6.3.0 by @fontawesome - https://fontawesome.com License - https://fontawesome.com/license (Commercial License) Copyright 2023 Fonticons, Inc. --><path d="M479.2 32.8C457.3 10.93 428.7 0 399.1 0c-28.66 0-57.32 10.93-79.2 32.8l-43.31 43.31c-18.7 18.7-28.9 42.41-31.62 66.79l-233.3 263c-17.53 19.89-16.61 50.13 2.094 68.84l22.41 22.52C46.83 507.1 59.72 512 72.66 512c11.91 0 23.84-4.172 33.41-12.61L248 373.5V504c0 4.422 3.581 7.998 8.003 7.998S264 508.4 264 504v-144c0-.1992-.1973-.3125-.2109-.5078l105.3-93.37c24.4-2.703 48.12-12.91 66.83-31.62l43.31-43.31C522.9 147.5 522.9 76.55 479.2 32.8zM95.48 487.4C89.19 492.9 81.08 496 72.66 496c-9.207 0-17.83-3.551-24.25-9.973l-22.43-22.54c-12.75-12.76-13.37-33.39-1.441-46.92l229.4-258.6l100.1 100.1L95.48 487.4zM467.9 179.9l-43.31 43.31c-14.91 14.91-34.27 24.09-55.97 26.77l-106.6-106.6c2.691-21.71 11.87-41.06 26.78-55.97l43.31-43.31C350.3 25.98 374.4 16 399.1 16c25.64 0 49.75 9.984 67.88 28.12C505.3 81.55 505.3 142.5 467.9 179.9zM310.5 65.78l135.8 135.8l11.31-11.31l-135.8-135.8L310.5 65.78z"/></svg>

<svg xmlns="http://www.w3.org/2000/svg" viewBox="0 0 512 512"><!-- Font Awesome Pro 6.0.0-alpha2 by @fontawesome - https://fontawesome.com License - https://fontawesome.com/license (Commercial License) --><path d="M479.195 32.805C457.326 10.934 428.662 0 399.998 0C371.336 0 342.674 10.934 320.803 32.805L277.492 76.117C258.793 94.816 248.588 118.523 245.875 142.91L12.565 405.953C-4.967 425.844 -4.045 456.078 14.658 474.797L37.065 497.313C46.83 507.078 59.721 512 72.658 512C84.565 512 96.502 507.828 106.065 499.391L248 373.5V504C248 508.422 251.578 512 256 512S264 508.422 264 504V360C264 359.801 263.803 359.688 263.789 359.492L369.055 266.125C393.453 263.422 417.176 253.215 435.883 234.508L479.195 191.195C522.936 147.453 522.936 76.547 479.195 32.805ZM95.479 487.395C89.19 492.945 81.084 496 72.658 496C63.451 496 54.828 492.449 48.406 486.027L25.977 463.488C13.227 450.727 12.608 430.102 24.535 416.57L253.936 157.938L354.049 258.047L95.479 487.395ZM467.883 179.883L424.568 223.195C409.658 238.102 390.303 247.281 368.596 249.969L262.025 143.398C264.717 121.691 273.897 102.34 288.805 87.43L332.117 44.117C350.25 25.984 374.358 16 399.998 16C425.641 16 449.75 25.984 467.881 44.117C505.311 81.547 505.311 142.453 467.883 179.883ZM310.469 65.781L446.219 201.531L457.531 190.219L321.781 54.469L310.469 65.781Z"/></svg>
